X:1
T:How Vast the Benefits Divine
T:Text: Augustus M. Toplady, 1774, alt. Tune: Gottfried W. Fink, 1842
T:CMD BETHLEHEM www.hymnary.org/text/how_vast_the_benefits_divine
T:How Vast the Benefits Divine
T:This hymn is in the public domain. You may freely use this score for personal and congregational worship. If you reproduce the score, please credit Hymnary.org as the source. 
T:This hymn is in the public domain. You may freely use this score for personal and congregational worship. If you reproduce the score, please credit Hymnary.org as the source. 
Z:This hymn is in the public domain. You may freely use this score for personal and congregational worship. If you reproduce the score, please credit Hymnary.org as the source.
%%score ( 1 2 ) ( 3 4 )
L:1/8
M:4/4
K:Bb
V:1 treble nm="SOPRANO ALTO" snm="S. A."
V:2 treble 
V:3 bass nm="TENOR BASS" snm="T. B."
V:4 bass 
V:1
"^1""^2""^3" F2 | B2 B2 A2 G2 | F3 G F2 F2 | G2 c2 B2 A2 | B6 | F2 | B2 B2 A2 G2 | F3 G F2 d2 | %8
w: How|vast the ben- e-|fits di- vine which|we in Christ pos-|sess!|We|are re- deemed from|sin and shame, and|
w: To|you, O Christ, a-|lone is due all|glo- ry and re-|nown;|no|mer- it of our|own we claim, nor|
w: With-|in the arms of|sov- ereign love we|ev- er shall re-|main;|nor|shall the rage of|earth or hell make|
 c2 B2 A2 G2 | F6 | F2 | A2 F2 B2 F2 | c2 F2 d2 B2 | e2 d2 c2 B2 | (B4 A2) |1 F2 | B2 B2 A2 G2 | %17
w: called to ho- li-|ness.|'This|not for works that|we have done— these|all to him we|owe; *|but|he of his e-|
w: rob you of your|crown.|You|were our on- ly|sur- e- ty in|God's re- demp- tion|plan; *|in|you his grace was|
w: God's sure coun- sel|vain.|Each|one of all the|cho- sen race shall|sure- ly heaven at-|tain; *|here|they will share a-|
 F3 G F2 F2 | G2 c2 B2 A2 | B6 x2 |] %20
w: lec- ting love sal-|va- tion does bes-|tow.|
w: giv- en us be-|fore the world be-|gan.|
w: bound- ing grace, and|there with Je- sus|reign.|
V:2
 F2 | D2 F2 F2 E2 | D3 E D2 F2 | E2 G2 F2 F2 | F6 | F2 | D2 F2 F2 E2 | D3 E D2 F2 | F2 F2 F2 =E2 | %9
 F6 | F2 | C2 C2 F2 F2 | E2 E2 D2 D2 | E2 F2 G2 G2 | F6 |1 E2 | D2 F2 F2 E2 | D2 E2 F2 D2 | %18
 E2 G2 F2 E2 | D6 x2 |] %20
V:3
 F,2 | F,2 F,2 E,F, G,A, | B,3 B, B,2 B,2 | B,2 E2 D2 C2 | D6 | F,2 | B,2 B,2 B,2 B,2 | %7
 B,3 B, B,2 B,2 | C2 D2 C2 B,2 | A,6 | F,2 | F,2 A,2 B,2 B,2 | A,2 A,2 B,2 B,2 | B,2 B,2 C2 C2 | %14
 (D4 C2) |1 A,2 | B,2 F,2 E,F, G,A, | B,2 A,2 B,2 B,2 | B,2 E2 D2 C2 | B,6 x2 |] %20
V:4
 F,2 | B,,2 D,2 E,2 E,2 | B,,3 B,, B,,2 D,2 | E,2 C,2 F,2 F,2 | B,,6 | F,2 | B,,2 D,2 E,F, G,A, | %7
 B,3 B,, B,,2 B,,2 | A,,2 B,,2 C,2 C,2 | F,6 | F,2 | E,2 E,2 D,2 D,2 | C,2 C,2 B,,2 _A,2 | %13
 G,2 F,2 E,2 =E,2 | F,6 |1 F,2 | B,,2 D,2 E,2 E,2 | B,,2 C,2 D,2 B,,2 | E,2 C,2 F,2 F,2 | %19
 B,,6 x2 |] %20

